!!!!SEGMENT: pl-wnifc--2373-n_mikuli-karol--vergissmeinnicht-op-28-no-2.krn
!!!cenid: 18xx:3889
!!!COM: Mikuli, Karol
!!!COM-rismID: pe106110
!!!CDT: 1819-1897
!!!CNT:
!!!OTL: Vergissmeinnicht op. 28 no. 2
!!!PDT: 1880
!!!AGN:
!!!SMS-siglum: PL-Wnifc
!!!SMS-shelfmark: 2373/n
!!!SMS-shelfwork: W
!!!SMS-variant:
!!!SMS-altvar:
!!!NIFC-rismSourceID: 1001155551
!!!NIFC-islandoraID: nifc:211962
!!!URL-pdf-islandora: https://repozytorium.nifc.pl/islandora/object/nifc%3A211962/datastream/PDF/view
!!!URL-scan: https://polish.musicsources.pl/pl/lokalizacje/galeria/druki-muzyczne/16818 @EN{Scan on Polish Music Sources Website} @PL{Skany w portalu Dziedzictwo Muzyki Polskiej w otwartym dostępie}
!!!ONB-nifc:
!!!AIN: 2 piano 1 soprn 1 tenor
!!!key: A-
**kern	**kern	**fing	**dynam	**kern	**text	**dynam	**kern	**text	**dynam
*part4	*part3	*part3	*part3	*part2	*part2	*part2	*part1	*part1	*part1
*staff4	*staff3	*	*	*staff2	*staff2	*	*staff1	*staff1	*
*I"Pianoforte.	*I"Pianoforte.	*	*	*I"Tenor.	*	*	*I"Sopran.	*	*
*I'pf	*I'pf	*	*	*I'T	*	*	*I'S	*	*
*ICklav	*ICklav	*	*	*ICvox	*	*	*ICvox	*	*
*Ipiano	*Ipiano	*	*	*Itenor	*	*	*Isoprn	*	*
*clefG2	*clefG2	*	*	*clefGv2	*	*	*clefG2	*	*
*k[b-e-a-d-]	*k[b-e-a-d-]	*	*	*k[b-e-a-d-]	*	*	*k[b-e-a-d-]	*	*
*A-:	*A-:	*	*	*A-:	*	*	*A-:	*	*
*M6/8	*M6/8	*	*	*M6/8	*	*	*M6/8	*	*
!	!LO:TX:b:i:t=legato	!	!	!	!	!	!	!	!
!	!LO:TX:B:a:t=Andantino. [quarter]. = 60	!	!	!	!	!	!LO:TX:B:a:t=Andantino.	!	!
(4.a-/	([4.ee-\ 4.aa- 4.ccc	.	p	4r	.	.	4r	.	.
.	.	.	.	8r	.	.	8r	.	.
=1	=1	=1	=1	=1	=1	=1	=1	=1	=1
4.b-/	4.ee-\] 4.gg 4.ddd-	.	.	2.r	.	.	2.r	.	.
4.e-/	4.dd-\ 4.gg	.	.	.	.	.	.	.	.
=2	=2	=2	=2	=2	=2	=2	=2	=2	=2
4a-/)	4cc\) 4aa-	.	.	2.r	.	.	2.r	.	.
8r	8r	.	.	.	.	.	.	.	.
(4.d-/ 4.a-	(4.dd-\ 4.ff	.	.	.	.	.	.	.	.
=3	=3	=3	=3	=3	=3	=3	=3	=3	=3
4.e-/ 4.an	4.cc\ 4.gg-X	.	.	2.r	.	.	2.r	.	.
4.e-/	4.g-X/ 4.an	.	.	.	.	.	.	.	.
=4	=4	=4	=4	=4	=4	=4	=4	=4	=4
4d-/)	4f/) 4b-	.	.	2.r	.	.	2.r	.	.
8r	8r	.	.	.	.	.	.	.	.
*clefF4	*	*	*	*	*	*	*	*	*
4.d-\	(>4.f-X/ 4.gn 4.b-	.	.	.	.	.	.	.	.
=5	=5	=5	=5	=5	=5	=5	=5	=5	=5
*	*^	*	*	*	*	*	*	*	*
4.c\	4.f#X/ 4.an 4.ee-	2.e-\	.	.	2.r	.	.	2.r	.	.
4.c-X\	[4.fn/ 4.a-X	.	.	.	.	.	.	.	.	.
=6	=6	=6	=6	=6	=6	=6	=6	=6	=6	=6
[2.B-\	4.f/] 4.b-	2.dn\	.	.	2.r	.	.	2.r	.	.
.	4.f/)	.	.	.	.	.	.	.	.	.
=7	=7	=7	=7	=7	=7	=7	=7	=7	=7	=7
[2.E-\ 2.B-]	(4.a-/	[2.d-X\	.	.	2.r	.	.	2.r	.	.
.	4.g/	.	.	.	.	.	.	.	.	.
=8	=8	=8	=8	=8	=8	=8	=8	=8	=8	=8
*^	*	*	*	*	*	*	*	*	*	*
4.A-/	2.E-\]	4.f/	2.d-\]	.	>	2.r	.	.	2.r	.	.
4.G/	.	4.e-/)	.	.	.	.	.	.	.	.	.
*v	*v	*	*	*	*	*	*	*	*	*	*
*	*v	*v	*	*	*	*	*	*	*	*
!!LO:LB:g=original	!	!	!	!	!	!	!	!
=9	=9	=9	=9	=9	=9	=9	=9	=9	=9
[2.AA-\ [2.A-	(8c/L	.	] pp	2.r	.	.	2.r	.	.
.	8e-/	.	.	.	.	.	.	.	.
.	8cc/J	.	.	.	.	.	.	.	.
.	8a-\L	.	.	.	.	.	.	.	.
.	8ee-\	.	.	.	.	.	.	.	.
.	8a-\J)	.	.	.	.	.	.	.	.
=10	=10	=10	=10	=10	=10	=10	=10	=10	=10
4.AA-\] 4.A-]	(8c/L	.	.	4r	.	.	4r	.	.
.	8e-/	.	.	.	.	.	.	.	.
.	8cc/J	.	.	8r	.	.	8r	.	.
4r	8a-\L	.	.	4r	.	.	4r	.	.
.	8ee-\	.	.	.	.	.	.	.	.
!	!	!	!	!	!	!LO:DY:a	!	!	!LO:DY:a
8r	8a-\J)	.	.	8e-\	Es	p	8e-/	Es	p
=11	=11	=11	=11	=11	=11	=11	=11	=11	=11
4.A-\	(8c/L	.	p	4e-\	blüht	.	4cc\	blüht	.
.	8e-/	.	.	.	.	.	.	.	.
.	8a-/J	.	.	8e-\	ein	.	8cc\	ein	.
4.E-\	8g/L	.	.	8d-\L	schö-	.	4b-\	schö-	.
.	8dd-/	.	.	8f-X\J	.	.	.	.	.
.	8g/J)	.	.	8e-\	nes	.	8cc\	-nes	.
=12	=12	=12	=12	=12	=12	=12	=12	=12	=12
4.AA-/	(8a-/L	.	.	4.c\	Blüm-	.	(4a-/	Blüm-	.
.	8c/	.	.	.	.	.	.	.	.
.	8a-/J	.	.	.	.	.	8e-/)	.	.
4.A-\	8f/L	.	.	4d-\	-lein	.	4f/	-lein	.
.	8d-/	.	.	.	.	.	.	.	.
.	8e-/J)	.	.	8B-\	auf	.	8g/	auf	.
=13	=13	=13	=13	=13	=13	=13	=13	=13	=13
!	!	!	!	!	!	!LO:DY:a	!	!	!LO:DY:a
4.AA-/	(8e-/L	.	.	8c\L	uns'-	<	4a-/	uns'-	<
.	8A-/	.	<	8Bn\J	.	.	.	.	.
.	8en/J	.	.	8c\	-rer	.	8a-/	-rer	.
4.D-\	8f/L	.	.	4d-\	grü-	.	4a-/	grü-	.
.	8a-/	.	.	.	.	.	.	.	.
.	8g/J)	.	[[	8f\	-nen	[[	8b-\	-nen	[[
=14	=14	=14	=14	=14	=14	=14	=14	=14	=14
!	!	!	!	!	!	!LO:DY:a	!	!	!LO:DY:a
2.C/	8r	.	>	[4.en\	Au'_	>	[4.cc\	Au'!_	>
.	(8en/L	.	.	.	.	.	.	.	.
.	8g/J	.	.	.	.	.	.	.	.
.	8e/L	.	.	4e\]	.	.	4cc\]	!	.
.	8c/	.	.	.	.	.	.	.	.
.	8G/J)	.	]]	8e\	sein	]	8cc\	sein	]
!!LO:LB:g=original	!	!	!	!	!	!	!	!
=15	=15	=15	=15	=15	=15	=15	=15	=15	=15
*	*^	*	*	*	*	*	*	*	*
(4.FF/	(<8An/L	4.A\	.	.	4.e-X\	Aug'	.	4cc\	Aug'	.
.	8f/	.	.	.	.	.	.	.	.	.
.	8e-/J	.	.	.	.	.	.	8cc\	ist	.
4.BB-/)	8A-X/L	4.A-\	.	.	8dn\	ist	.	4b-\	wie	.
.	8g/	.	.	.	8d\	wie-	.	.	.	.
.	8f/J)	.	.	.	8d\	-der	.	8cc\	der	.
*	*v	*v	*	*	*	*	*	*	*	*
=16	=16	=16	=16	=16	=16	=16	=16	=16	=16
4.EE-/	(8G/L	.	.	4.d-X\	Him-	.	(4b-/	Him-	.
.	8f-X/	.	.	.	.	.	.	.	.
.	8e-/J	.	.	.	.	.	8e-/)	.	.
4AA-/	8e-/L	.	.	4c\	-mel	.	4a-/	-mel	.
.	8ee-/	.	.	.	.	.	.	.	.
8r	8cc/J)	.	.	8A-/	so	.	8cc\	so	.
=17	=17	=17	=17	=17	=17	=17	=17	=17	=17
(4C/	(8a-/L	.	>	8A-/L	hei-	.	4ee-\	hei-	.
.	8g-X/	.	.	8An/J	.	.	.	.	.
!	!	!	!	!	!	!LO:DY:a	!	!	!LO:DY:a
8D-\	8f/J	.	.	8B-\	-ter	>	8dd-\	-ter	>
4.E-\	8d-/L	.	.	8r	.	.	4f/	und	.
.	8c/	.	.	8e-\	und	.	.	.	.
.	8B-/J)	.	]]	8d-\	so	.	8g/	so	.
=18	=18	=18	=18	=18	=18	=18	=18	=18	=18
4.AA-/)	(>8c/L	.	<	[4.c\	blau;_	.	[4.a-/	blau;_	.
.	8e-/	.	.	.	.	.	.	.	.
.	8a-/J	.	.	.	.	.	.	.	.
(4AA-/	8cc/L	.	.	4c\]	.	.	4a-/]	.	.
.	8e-/ 8ee-	.	.	.	.	.	.	.	.
8GG-X/	8en/J) 8een	.	[[	8B-\	es	.	8cc\	es	.
=19	=19	=19	=19	=19	=19	=19	=19	=19	=19
.	8qf/	.	>	.	.	.	.	.	.
4FF/)	(8ff\L	.	.	4An/	weiss	.	4cc\	weiss	.
.	8een\	.	.	.	.	.	.	.	.
8r	8ee-X\J	.	.	8A/	nicht	.	8cc\	nicht	.
4BB-/	8dd-\L	.	.	8B-\L	viel	.	8dd-\L	viel	.
.	8cc\	.	.	8c\J	.	.	8ee-\J	.	.
8r	8b-\J)	.	]]	8d-\	zu	.	8ff\	zu	.
=20	=20	=20	=20	=20	=20	=20	=20	=20	=20
(4.F\	(8en/L	.	.	(4d-\	re-	.	(4g/	re-	.
.	8f/	.	.	.	.	.	.	.	.
.	8e-X/J	.	.	8c\)	.	.	8an/)	.	.
4BB-/)	8d-/L	.	.	4B-\	-den	.	4b-\	-den	.
.	8c/	.	.	.	.	.	.	.	.
8r	8B-/J)	.	.	8B-\	und	.	8b-\	und	.
!!LO:PB:g=original	!	!	!	!	!	!	!	!
=21	=21	=21	=21	=21	=21	=21	=21	=21	=21
4C/	(8g-X/L	.	.	8G-X/L	al-	.	8ee-\L	al-	.
!	!	!	!	!	!	!LO:DY:a	!	!	!LO:DY:a
.	8f/	.	.	8B-/J	.	>	8dd-\J	.	>
8r	8e-/J	.	.	8e-\	-les	.	8cc\	-les	.
4F\	8c/L	.	.	8g-X\L	was	.	8b-/L	was	.
.	8f/	.	.	8f\J	.	.	8an/J	.	.
8r	8An/J)	.	.	8e-\	es	.	8cc\	es	.
=22	=22	=22	=22	=22	=22	=22	=22	=22	=22
2.BB-/	(8B-/L	.	.	4.d-\	spricht!	.	4.b-\	spricht	.
.	8d-/	.	.	.	.	.	.	.	.
.	8f/J	.	.	.	.	.	.	.	.
.	8b-\L	.	.	4r	.	.	4r	.	.
.	8dd-\	.	.	.	.	.	.	.	.
.	8ff\J)	.	.	8d-\	ist	.	8b-\	ist	.
=23	=23	=23	=23	=23	=23	=23	=23	=23	=23
4EE-/	(8ee-\L	.	>	8d-/L	im-	.	4b-\	im-	.
.	8ddn\	.	.	8F/J	.	.	.	.	.
8r	8dd-X\J	.	.	8Gn/	-mer	.	8b-\	-mer	.
4AA-/	8cc\L	.	.	8A-/L	nur	.	8cc\L	nur	.
.	8b-\	.	.	8B-/J	.	.	8dd-\J	.	.
8r	8a-\J)	.	]]	8c\	das	.	8ee-\	das-	.
=24	=24	=24	=24	=24	=24	=24	=24	=24	=24
4.E-\	8r	.	.	(4c\	sel-	.	(4f/	-sel-	.
.	(8e-/L	.	.	.	.	.	.	.	.
.	8d-/J	.	.	8B-\)	.	.	8g/)	.	.
4AA-/	8c/L	.	.	8A-/	-be,	.	8a-/	-be,	.
.	8e-/	.	.	8r	.	.	8r	.	.
8r	8a-/J)	.	.	8r	.	.	8cc\	ist	.
=25	=25	=25	=25	=25	=25	=25	=25	=25	=25
(4.A-\	8r	.	pp	4r	.	.	4ddn\	im-	.
.	(8f#X/L	.	.	.	.	.	.	.	.
.	8ddn/J)	.	.	8f#X\	ist	.	8cc\	-mer	.
4.G\	8r	.	.	4g\	im-	.	4bn\	nur	.
.	(8g/L	.	.	.	.	.	.	.	.
.	8dd/J)	.	.	8fn\	-mer	.	8b\	das-	.
=26	=26	=26	=26	=26	=26	=26	=26	=26	=26
4.C/	8r	.	.	4.en\	nur,	.	(4cc\	-sel-	.
.	(8g/L	.	.	.	.	.	.	.	.
.	8dd-X/J)	.	.	.	.	.	8b-X\)	.	.
4.F\	8r	.	.	4.f\	ist	.	8a-/	-be	.
.	(8a-/L	.	.	.	.	.	8r	.	.
.	8cc/J)	.	.	.	.	.	8a-/	und	.
!!LO:LB:g=original	!	!	!	!	!	!	!	!
=27	=27	=27	=27	=27	=27	=27	=27	=27	=27
*	*^	*	*	*	*	*	*	*	*
4.G\	(4.b-/	[4.e-\	.	.	[4.e-X\	nur,_	.	(4.b-\	nur,_	.
4.A-\)	4.a-/	4e-\]	.	.	4e-\]	.	.	4dd-\)	.	.
.	.	8f\	.	.	8dn\	und	.	8cc-X\	und	.
=28	=28	=28	=28	=28	=28	=28	=28	=28	=28	=28
*^	*	*	*	*	*	*	*	*	*	*
4.B-;/	4.E-\	4.ee-;/)	4.g\	.	.	4.e-;\	nur	.	4.b-;\	nur	.
!	!	!	!	!	!	!LO:TX:a:i:t=langsamer	!	!	!LO:TX:a:i:t=langsamer	!	!
4r	4r	4r	4r	.	.	4.A-/	Ver-	.	4.ccn\	Ver-	.
8r	8r	8r	8r	.	.	.	.	.	.	.	.
*v	*v	*	*	*	*	*	*	*	*	*	*
*	*v	*v	*	*	*	*	*	*	*	*
=29	=29	=29	=29	=29	=29	=29	=29	=29	=29
2.r	2.r	.	.	4.G/	-giss-	.	4.dd-\	-gis-	.
.	.	.	.	4.d-X\	-mein-	.	4.g/	-smein-	.
=30	=30	=30	=30	=30	=30	=30	=30	=30	=30
2.r;	2.r;	.	.	4c\	-nicht!	.	4a-/	-nicht!	.
.	.	.	.	8r;	.	.	8r;	.	.
.	.	.	.	4.d-\	Ver-	.	4.ff\	Ver	.
=31	=31	=31	=31	=31	=31	=31	=31	=31	=31
2.r	2.r	.	.	4.c\	-giss-	.	4.gg-X\	gis-	.
.	.	.	.	4.e-\	-mein-	.	4.an/	-smein	.
=32	=32	=32	=32	=32	=32	=32	=32	=32	=32
2.r	2.r	.	.	4.d-\	-nicht!	.	4.b-\	nicht!	.
.	.	.	.	8r;	.	.	8r;	.	.
.	.	.	.	16r	.	.	16r	.	.
.	.	.	.	16f-X\	Ver-	.	16b-\	Ver-	.
.	.	.	.	16e-\	-giss-	.	16cc\	-gis-	.
.	.	.	.	16d-\	-mein-	.	16dd-\	-smein	.
=33	=33	=33	=33	=33	=33	=33	=33	=33	=33
2.r	2.r	.	.	4.c\	-nicht,	.	4.ee-\	nicht,	.
.	.	.	.	[4.f\	Ver-	.	4.a-/	Ver-	.
=34	=34	=34	=34	=34	=34	=34	=34	=34	=34
!	!	!	!	!	!	!LO:DY:a	!	!	!
2.r	2.r	.	.	(4f\]	.	>	(4.dd-\	-giss-	.
.	.	.	.	8f-X\)	.	.	.	.	.
.	.	.	.	4e-\	-giss-	.	4cc\)	.	.
.	.	.	.	8d-\	-mein-	]]	8b-\	-mein	.
!!LO:LB:g=original	!	!	!	!	!	!	!	!
=35	=35	=35	=35	=35	=35	=35	=35	=35	=35
*	*^	*	*	*	*	*	*	*	*
*ped	*	*	*	*	*	*	*	*	*	*
16AA-/	16r	4ryy	.	.	4.c\	-nicht!	.	4.a-/	nicht!	.
!	!LO:TX:t=P:problem:łuk w formie "fali"	!	!	!	!	!	!	!	!	!
16r	N(>16ee-/LL	.	.	.	.	.	.	.	.	.
16r	16e-/JJ	.	.	.	.	.	.	.	.	.
16c\LL	16r	.	.	.	.	.	.	.	.	.
16A-\	8r	8c\ 8e-	.	.	.	.	.	.	.	.
*Xped	*	*	*	*	*	*	*	*	*	*
16E-\JJN)	.	.	.	.	.	.	.	.	.	.
*ped	*	*	*	*	*	*	*	*	*	*
16AA-/	16ryy	4d-\ 4f	.	.	4r	.	.	4r	.	.
!	!LO:TX:t=P:problem:łuk w formie "fali"	!	!	!	!	!	!	!	!	!
16r	N(16ee-/LL	.	.	.	.	.	.	.	.	.
16r	16e-/JJ	.	.	.	.	.	.	.	.	.
16d-\LL	16r	.	.	.	.	.	.	.	.	.
16B-\	8r	8B-\ 8g	.	.	8r	.	.	8r	.	.
16E-\JJN)	.	.	.	.	.	.	.	.	.	.
*Xped	*	*	*	*	*	*	*	*	*	*
=36	=36	=36	=36	=36	=36	=36	=36	=36	=36	=36
*ped	*	*	*	*	*	*	*	*	*	*
16AA-/	16r	4d-\ 4a-	.	.	2.r	.	.	2.r	.	.
!	!LO:TX:t=P:problem:łuk w formie "fali"	!	!	!	!	!	!	!	!	!
16r	N(16ee-/LL	.	.	.	.	.	.	.	.	.
16r	16e-/JJ	.	.	.	.	.	.	.	.	.
16c\LL	16r	.	.	.	.	.	.	.	.	.
16A-\	8r	8c\ 8e-	.	.	.	.	.	.	.	.
*Xped	*	*	*	*	*	*	*	*	*	*
16E-\JJN)	.	.	.	.	.	.	.	.	.	.
*ped	*	*	*	*	*	*	*	*	*	*
16AA-/	16r	4d-\ 4f	.	.	.	.	.	.	.	.
!	!LO:TX:t=P:problem:łuk w formie "fali"	!	!	!	!	!	!	!	!	!
16r	N(16ee-/LL	.	.	.	.	.	.	.	.	.
16r	16e-/JJ	.	.	.	.	.	.	.	.	.
16e-\LL	16r	.	.	.	.	.	.	.	.	.
16d-\	8r	8B-\ 8g	.	.	.	.	.	.	.	.
16E-\JJN)	.	.	.	.	.	.	.	.	.	.
*Xped	*	*	*	*	*	*	*	*	*	*
=37	=37	=37	=37	=37	=37	=37	=37	=37	=37	=37
*ped	*	*	*	*	*	*	*	*	*	*
16AA-/	16r	4d-\ 4a-	.	.	2.r	.	.	2.r	.	.
!	!LO:TX:t=P:problem:łuk w formie "fali"	!	!	!	!	!	!	!	!	!
16r	N(16ee-/LL	.	.	.	.	.	.	.	.	.
16r	16e-/JJ	.	.	.	.	.	.	.	.	.
16e-\LL	16r	.	.	.	.	.	.	.	.	.
16A-\	8r	8e-\ 8cc	.	.	.	.	.	.	.	.
16E-\JJN)	.	.	.	.	.	.	.	.	.	.
16AA-/	16r	4c\ 4a-	.	.	.	.	.	.	.	.
!	!LO:TX:t=P:problem:łuk w formie "fali"	!	!	!	!	!	!	!	!	!
16r	N(16ee-/LL	.	.	.	.	.	.	.	.	.
16r	16e-/JJ	.	.	.	.	.	.	.	.	.
16e-\LL	16r	.	.	.	.	.	.	.	.	.
16A-\	8r	8B-\ 8g	.	.	.	.	.	.	.	.
16E-\JJN)	.	.	.	.	.	.	.	.	.	.
*Xped	*	*	*	*	*	*	*	*	*	*
=38	=38	=38	=38	=38	=38	=38	=38	=38	=38	=38
*ped	*	*	*	*	*	*	*	*	*	*
16AA-/	16r	4.c\ 4.a-	.	.	4r	.	.	4r	.	.
!	!LO:TX:t=P:problem:łuk w formie "fali"	!	!	!	!	!	!	!	!	!
16r	N(16ee-/LL	.	.	.	.	.	.	.	.	.
16r	16e-/JJ	.	.	.	.	.	.	.	.	.
16e-\LL	16r	.	.	.	.	.	.	.	.	.
16A-\	8r	.	.	.	8r	.	.	8r	.	.
16E-\JJN)	.	.	.	.	.	.	.	.	.	.
16AA-/	16r	4ryy	.	.	4r	.	.	4r	.	.
!	!LO:TX:t=P:problem:łuk w formie "fali"	!	!	!	!	!	!	!	!	!
16r	N(>16ee-/LL	.	.	.	.	.	.	.	.	.
16r	16e-/JJ	.	.	.	.	.	.	.	.	.
16e-\LL	16r	.	.	.	.	.	.	.	.	.
!	!	!	!	!	!	!	!LO:DY:a	!	!	!LO:DY:a
16A-\	8r	8ryy	.	.	8e-\	Wenn	p	8e-/	Wenn	p
16E-\JJN)	.	.	.	.	.	.	.	.	.	.
*Xped	*	*	*	*	*	*	*	*	*	*
*	*v	*v	*	*	*	*	*	*	*	*
!!LO:PB:g=original	!	!	!	!	!	!	!	!
=39	=39	=39	=39	=39	=39	=39	=39	=39	=39
*ped	*	*	*	*	*	*	*	*	*
16AA-/	16r	.	.	4e-\	ich	.	4cc\	ich	.
16r	(16ee-/KL	.	.	.	.	.	.	.	.
16r	8e-/	.	.	.	.	.	.	.	.
(16c\LL	.	.	.	.	.	.	.	.	.
16A-\	8ee-/J)	.	.	8e-\	zwei	.	8cc\	zwei	.
*Xped	*	*	*	*	*	*	*	*	*
16E-\JJ	.	.	.	.	.	.	.	.	.
*ped	*	*	*	*	*	*	*	*	*
16AA-/)	16r	.	.	8d-\L	Äug-	.	4b-\	Äug-	.
16r	(16ee-/KL	.	.	.	.	.	.	.	.
16r	8e-/	.	.	8f-X\J	.	.	.	.	.
(16d-\LL	.	.	.	.	.	.	.	.	.
16G\	8ee-/J)	.	.	8e-\	-lein	.	8cc\	-lein	.
16E-\JJ	.	.	.	.	.	.	.	.	.
*Xped	*	*	*	*	*	*	*	*	*
=40	=40	=40	=40	=40	=40	=40	=40	=40	=40
!LO:TX:b:B:i:t=simile	!	!	!	!	!	!	!	!	!
16AA-/)	16r	.	.	4.c\	se-	.	(4a-/	se-	.
16r	(16ee-/KL	.	.	.	.	.	.	.	.
16r	8e-/	.	.	.	.	.	.	.	.
(16c\LL	.	.	.	.	.	.	.	.	.
16A-\	8ee-/J)	.	.	.	.	.	8e-/)	.	.
16E-\JJ	.	.	.	.	.	.	.	.	.
16AA-/)	16r	.	.	4d-\	-he	.	4f/	-he	.
16r	(16ee-/KL	.	.	.	.	.	.	.	.
16r	8e-/	.	.	.	.	.	.	.	.
(16e-\LL	.	.	.	.	.	.	.	.	.
16d-\	8ee-/J)	.	.	8B-\	so	.	8g/	so	.
16E-\JJ	.	.	.	.	.	.	.	.	.
=41	=41	=41	=41	=41	=41	=41	=41	=41	=41
16AA-/)	16r	.	.	8c\L	hei-	.	4a-/	hei-	.
16r	([>16ee-/KL	.	.	.	.	.	.	.	.
16r	8e-/ 8ee-]	.	.	8Bn\J	.	.	.	.	.
(16c\LL	.	.	.	.	.	.	.	.	.
16A-\	8en/J) 8een	.	.	8c\	-ter	.	8a-/	-ter	.
16AA-\JJ	.	.	.	.	.	.	.	.	.
16D-\)	16r	.	.	4d-\	und	.	4a-/	und	.
16r	([>16ff/KL	.	.	.	.	.	.	.	.
16r	8f/ 8ff]	.	.	.	.	.	.	.	.
(16d-\LL	.	.	.	.	.	.	.	.	.
16G\	8g/J) 8gg	.	.	8f\	so	.	8b-/	so	.
16D-\JJ	.	.	.	.	.	.	.	.	.
=42	=42	=42	=42	=42	=42	=42	=42	=42	=42
*ped	*	*	*	*	*	*	*	*	*
16C/)	16r	.	.	[4.en\	blau,_	.	[4.cc\	blau,_	.
16r	(16gg\KL	.	.	.	.	.	.	.	.
16r	8g\	.	.	.	.	.	.	.	.
(16c\LL	.	.	.	.	.	.	.	.	.
16G\	8gg\J)	.	.	.	.	.	.	.	.
16C\JJ	.	.	.	.	.	.	.	.	.
16C/)	16r	.	.	4e\]	.	.	4cc\]	.	.
16r	(16gg\KL	.	.	.	.	.	.	.	.
16r	8g\	.	.	.	.	.	.	.	.
(16c\LL	.	.	.	.	.	.	.	.	.
16G\	8gg\J)	.	.	8e\	so	.	8cc\	so	.
16C\JJ	.	.	.	.	.	.	.	.	.
*Xped	*	*	*	*	*	*	*	*	*
!!LO:LB:g=original	!	!	!	!	!	!	!	!	!
=43	=43	=43	=43	=43	=43	=43	=43	=43	=43
*ped	*	*	*	*	*	*	*	*	*
16FF/)	16r	.	.	4.e-X\	denk'	.	4cc\	denk'	.
16r	(16ff\KL	.	.	.	.	.	.	.	.
16r	8f\	.	.	.	.	.	.	.	.
(16e-X\LL	.	.	.	.	.	.	.	.	.
16An\	8ff\J)	.	.	.	.	.	8cc\	ich	.
*Xped	*	*	*	*	*	*	*	*	*
16F\JJ	.	.	.	.	.	.	.	.	.
*ped	*	*	*	*	*	*	*	*	*
16BB-/)	16r	.	.	8dn\	ich	.	4b-\	an	.
16r	(16ff\KL	.	.	.	.	.	.	.	.
16r	8f\	.	.	8d\	an	.	.	.	.
(16dn\LL	.	.	.	.	.	.	.	.	.
16A-X\	8ff\J)	.	.	8d\	mein	.	8cc\	mein	.
16F\JJ	.	.	.	.	.	.	.	.	.
*Xped	*	*	*	*	*	*	*	*	*
=44	=44	=44	=44	=44	=44	=44	=44	=44	=44
*ped	*	*	*	*	*	*	*	*	*
16EE-/)	16r	.	.	4.d-X\	Blüm-	.	(4b-\	Blüm-	.
16r	(16ee-/KL	.	.	.	.	.	.	.	.
16r	8e-/	.	.	.	.	.	.	.	.
(16d-X\LL	.	.	.	.	.	.	.	.	.
16G\	8ee-/J)	.	.	.	.	.	8e-/)	.	.
*Xped	*	*	*	*	*	*	*	*	*
16E-\JJ	.	.	.	.	.	.	.	.	.
!	!	!	!	!	!	!LO:DY:a	!	!	!LO:DY:a
*ped	*	*	*	*	*	*	*	*	*
16AA-/)	16r	.	.	4c\	-lein	<	4a-/	-lein	<
16r	(16ee-/KL	.	.	.	.	.	.	.	.
16r	8e-/	.	.	.	.	.	.	.	.
(16c\LL	.	.	.	.	.	.	.	.	.
16A-\	8ee-/J)	.	.	8A-/	auf	[[	8cc\	auf	[[
16E-\JJ	.	.	.	.	.	.	.	.	.
*Xped	*	*	*	*	*	*	*	*	*
=45	=45	=45	=45	=45	=45	=45	=45	=45	=45
!	!	!	!	!	!	!LO:DY:a	!	!	!LO:DY:a
*ped	*	*	*	*	*	*	*	*	*
16C/)	16r	.	.	8A-/L	uns-	>	4ee-\	uns-	>
16r	([>16gg-X/KL	.	.	.	.	.	.	.	.
16r	8g-X/ 8gg-]	.	.	8An/J	.	.	.	.	.
(16e-\LL	.	.	.	.	.	.	.	.	.
16D-\	8f/J) 8ff	.	.	8B-\	-rer	.	8dd-\	-rer	.
*Xped	*	*	*	*	*	*	*	*	*
16d-\JJ	.	.	.	.	.	.	.	.	.
*ped	*	*	*	*	*	*	*	*	*
16E-\)	16r	.	.	8r	.	.	4f/	grü-	.
16r	(16ee-/KL	.	.	.	.	.	.	.	.
16r	8e-/	.	.	8e-\	grü-	.	.	.	.
(16e-\LL	.	.	.	.	.	.	.	.	.
16B-\	8e-/J) 8b-	.	.	8d-\	-nen	]]	8g/	-nen	]]
16G\JJ	.	.	.	.	.	.	.	.	.
*Xped	*	*	*	*	*	*	*	*	*
=46	=46	=46	=46	=46	=46	=46	=46	=46	=46
*ped	*	*	*	*	*	*	*	*	*
16AA-/)	(16e-/LL 16a-	.	.	[4.c\	Au'._	.	[4.a-/	Au'._	.
16r	16ee-/J	.	.	.	.	.	.	.	.
16r	8e-/	.	.	.	.	.	.	.	.
(16c\LL	.	.	.	.	.	.	.	.	.
16A-\	8ee-/J)	.	.	.	.	.	.	.	.
16E-\JJ	.	.	.	.	.	.	.	.	.
*Xped	*	*	*	*	*	*	*	*	*
16C/LL	16r	.	.	4c\]	.	.	4a-/]	.	.
16F/	[16ee-/KL	.	.	.	.	.	.	.	.
16E-/	8.e-/ 8.ee-]	.	.	.	.	.	.	.	.
16C/	.	.	.	.	.	.	.	.	.
16AA-/	.	.	.	8B-\	Da	.	8cc\	Da	.
16GG-X/JJ)	16en/Jk 16een	.	.	.	.	.	.	.	.
!!LO:LB:g=original	!	!	!	!	!	!	!	!
=47	=47	=47	=47	=47	=47	=47	=47	=47	=47
*ped	*	*	*	*	*	*	*	*	*
16FF/	16r	.	.	4An/	kann	.	4cc\	kann	.
16r	(16ff\KL	.	.	.	.	.	.	.	.
16r	8f\	.	.	.	.	.	.	.	.
(16e-\LL	.	.	.	.	.	.	.	.	.
16c\	8ff\J)	.	.	8A/	ich	.	8cc\	ich	.
*Xped	*	*	*	*	*	*	*	*	*
16F\JJ	.	.	.	.	.	.	.	.	.
*ped	*	*	*	*	*	*	*	*	*
16BB-/)	16r	.	.	8B-\L	auch	.	8dd-\L	auch	.
16r	(16ff\KL	.	.	.	.	.	.	.	.
16r	8f\	.	.	8c\J	.	.	8ee-\J	.	.
(16d-\LL	.	.	.	.	.	.	.	.	.
16B-\	8ff\J)	.	.	8d-\	nicht	.	8ff\	nicht	.
16F\JJ	.	.	.	.	.	.	.	.	.
*Xped	*	*	*	*	*	*	*	*	*
=48	=48	=48	=48	=48	=48	=48	=48	=48	=48
*ped	*	*	*	*	*	*	*	*	*
16FF/)	16r	.	.	(4d-\	re-	.	(4g/	re-	.
16r	(16ff\KL	.	.	.	.	.	.	.	.
16r	8f\	.	.	.	.	.	.	.	.
(16e-\LL	.	.	.	.	.	.	.	.	.
16c\	8ff\J)	.	.	8c\)	.	.	8an/)	.	.
*Xped	*	*	*	*	*	*	*	*	*
16F\JJ	.	.	.	.	.	.	.	.	.
*ped	*	*	*	*	*	*	*	*	*
16BB-/)	16r	.	.	4B-\	-den,	.	4b-\	-den,	.
16r	(16ff\KL	.	.	.	.	.	.	.	.
16r	8f\	.	.	.	.	.	.	.	.
(16d-\LL	.	.	.	.	.	.	.	.	.
16B-\	8ff\J)	.	.	8B-\	und	.	8b-\	und	.
16F\JJ	.	.	.	.	.	.	.	.	.
*Xped	*	*	*	*	*	*	*	*	*
=49	=49	=49	=49	=49	=49	=49	=49	=49	=49
*ped	*	*	*	*	*	*	*	*	*
16C/)	16r	.	.	8G-X/L	nur	.	8ee-\L	nur	.
16r	(16gg-X\KL	.	.	.	.	.	.	.	.
16r	8g-X\	.	.	8B-/J	.	.	8dd-\J	.	.
(16e-\LL	.	.	.	.	.	.	.	.	.
16B-\	8gg-\J)	.	.	8e-\	mein	.	8cc\	mein	.
*Xped	*	*	*	*	*	*	*	*	*
16G-X\JJ	.	.	.	.	.	.	.	.	.
*ped	*	*	*	*	*	*	*	*	*
16FF/)	16r	.	.	8g-X\L	Her-	.	8b-/L	Her-	.
16r	(16ff\KL	.	.	.	.	.	.	.	.
16r	8f\	.	.	8f\J	.	.	8an/J	.	.
(16e-\LL	.	.	.	.	.	.	.	.	.
16An\	8ff\J)	.	.	8e-\	-ze	.	8cc\	-ze	.
16F\JJ	.	.	.	.	.	.	.	.	.
*Xped	*	*	*	*	*	*	*	*	*
=50	=50	=50	=50	=50	=50	=50	=50	=50	=50
*ped	*	*	*	*	*	*	*	*	*
16BB-/)	16r	.	.	4.d-\	spricht	.	4.b-\	spricht	.
16r	(16ff\KL	.	.	.	.	.	.	.	.
16r	8f\	.	.	.	.	.	.	.	.
(16d-\LL	.	.	.	.	.	.	.	.	.
16B-\	8ff\J)	.	.	.	.	.	.	.	.
16F\JJ	.	.	.	.	.	.	.	.	.
16BB-/)	16r	.	.	4r	.	.	4r	.	.
16r	(16ff\KL	.	.	.	.	.	.	.	.
16r	8f\	.	.	.	.	.	.	.	.
(16d-\LL	.	.	.	.	.	.	.	.	.
16B-\	8ff\J)	.	.	8d-\	so	.	8dd-\	so	.
16F\JJ	.	.	.	.	.	.	.	.	.
*Xped	*	*	*	*	*	*	*	*	*
!!LO:PB:g=original	!	!	!	!	!	!	!	!	!
=51	=51	=51	=51	=51	=51	=51	=51	=51	=51
*ped	*	*	*	*	*	*	*	*	*
16EE-/)	16r	.	.	8d-/L	han-	.	4b-\	han-	.
16r	(16ee-/KL	.	.	.	.	.	.	.	.
16r	8e-/	.	.	8F/J	.	.	.	.	.
(16d-\LL	.	.	.	.	.	.	.	.	.
16B-\	8ee-/J)	.	.	8G/	-ge	.	8b-\	-ge	.
*Xped	*	*	*	*	*	*	*	*	*
16E-\JJ	.	.	.	.	.	.	.	.	.
*ped	*	*	*	*	*	*	*	*	*
16AA-/)	16r	.	.	8A-/L	nur,	.	8cc\L	nur,	.
16r	(16ee-/KL	.	.	.	.	.	.	.	.
16r	8e-/	.	.	8B-/J	.	.	8dd-\J	.	.
(16c\LL	.	.	.	.	.	.	.	.	.
16A-\	8ee-/J)	.	.	8c\	so	.	8ee-\	so	.
16E-\JJ	.	.	.	.	.	.	.	.	.
*Xped	*	*	*	*	*	*	*	*	*
=52	=52	=52	=52	=52	=52	=52	=52	=52	=52
*ped	*	*	*	*	*	*	*	*	*
16EE-/)	16r	.	.	(4c\	lei-	.	(4f/	lei-	.
16r	(16ee-/KL	.	.	.	.	.	.	.	.
16r	8e-/	.	.	.	.	.	.	.	.
(16e-\LL	.	.	.	.	.	.	.	.	.
16d-\	8ee-/J)	.	.	8B-\)	.	.	8g/)	.	.
*Xped	*	*	*	*	*	*	*	*	*
16E-\JJ	.	.	.	.	.	.	.	.	.
*ped	*	*	*	*	*	*	*	*	*
16AA-/)	16r	.	.	4A-/	-se,	.	8a-/	-se,	.
16r	(16ee-/KL	.	.	.	.	.	.	.	.
16r	8e-/	.	.	.	.	.	8r	.	.
(16c\LL	.	.	.	.	.	.	.	.	.
16A-\	8ee-/J)	.	.	8r	.	.	8cc\	so	.
16E-\JJ	.	.	.	.	.	.	.	.	.
*Xped	*	*	*	*	*	*	*	*	*
=53	=53	=53	=53	=53	=53	=53	=53	=53	=53
*ped	*	*	*	*	*	*	*	*	*
4AA-/)	16r	.	.	4r	.	.	4ddn\	han-	.
.	(16f#X\LL	.	.	.	.	.	.	.	.
.	16cc\	.	.	.	.	.	.	.	.
.	16ddn\	1	.	.	.	.	.	.	.
*Xped	*	*	*	*	*	*	*	*	*
8A-\	16dddn\	.	.	8f#X\	so	.	8cc\	-ge	.
.	16dd\JJ)	.	.	.	.	.	.	.	.
*ped	*	*	*	*	*	*	*	*	*
4GG/	16r	.	.	4g\	han-	.	4bn\	nur,	.
.	(16g\LL	.	.	.	.	.	.	.	.
.	16bn\	.	.	.	.	.	.	.	.
.	16dd\	1	.	.	.	.	.	.	.
8G\	16ddd\	.	.	8fn\	-ge	.	8b\	so	.
.	16dd\JJ)	.	.	.	.	.	.	.	.
*Xped	*	*	*	*	*	*	*	*	*
=54	=54	=54	=54	=54	=54	=54	=54	=54	=54
*ped	*	*	*	*	*	*	*	*	*
4CC/	16r	.	.	4.en\	nur,	.	4cc\	lei-	.
.	(16g\LL	.	.	.	.	.	.	.	.
.	16cc\	.	.	.	.	.	.	.	.
.	16dd-X\	1	.	.	.	.	.	.	.
*Xped	*	*	*	*	*	*	*	*	*
8C/	16ddd-X\	.	.	.	.	.	8b-X\	-se,	.
.	16dd-\JJ)	.	.	.	.	.	.	.	.
*ped	*	*	*	*	*	*	*	*	*
4FF/	16r	.	.	4.f\	und	.	8a-/	nur,	.
.	(16f\LL	.	.	.	.	.	.	.	.
.	16a-\	.	.	.	.	.	8r	.	.
.	16cc\	1	.	.	.	.	.	.	.
8F\	16ccc\	.	.	.	.	.	8a-/	und	.
.	16cc\JJ)	.	.	.	.	.	.	.	.
*Xped	*	*	*	*	*	*	*	*	*
!!LO:LB:g=original	!	!	!	!	!	!	!	!	!
=55	=55	=55	=55	=55	=55	=55	=55	=55	=55
*ped	*	*	*	*	*	*	*	*	*
4.GG/ 4.G	16r	.	.	[4.e-\	nur,_	.	(4.b-\	nur,_	.
.	(16e-\LL	.	.	.	.	.	.	.	.
.	16b-\	.	.	.	.	.	.	.	.
.	16ee-\	1	.	.	.	.	.	.	.
.	16eee-\	.	.	.	.	.	.	.	.
*Xped	*	*	*	*	*	*	*	*	*
.	16ee-\JJ)	.	.	.	.	.	.	.	.
*ped	*	*	*	*	*	*	*	*	*
4.AA-\ 4.A-	16r	.	.	4e-\]	.	.	4dd-\)	.	.
.	(16e-\LL	.	.	.	.	.	.	.	.
.	16a-\	.	.	.	.	.	.	.	.
.	16cc-X\	1	.	.	.	.	.	.	.
.	16dddn\	.	.	8dn\	und	.	8cc-X\	und	.
.	16cc-\JJ)	.	.	.	.	.	.	.	.
=56	=56	=56	=56	=56	=56	=56	=56	=56	=56
*ped	*	*	*	*	*	*	*	*	*
!	!LO:TX:b:B:t=M.D.	!	!	!	!	!	!	!	!
8EE-/ 8G	(16b-\LL	.	.	[4.e-;\	nur_	.	[4.b-;\	nur_	.
.	16eee-\	.	.	.	.	.	.	.	.
16ryy	16gg\JJ	.	.	.	.	.	.	.	.
!LO:TX:B:t=M.G.	!	!	!	!	!	!	!	!	!
16b->\LL	8ryy	.	.	.	.	.	.	.	.
16e->\JJ	.	.	.	.	.	.	.	.	.
!	!LO:TX:a:B:t=M.D.	!	!	!	!	!	!	!	!
16ryy	16B-/)	.	.	.	.	.	.	.	.
4EE-\ 4E-	4G</ 4B-< 4e- 4g	.	.	4e-\]	.	.	4b-\]	.	.
8r;	8r;	.	.	8A-/	Ver-	.	8ccn\	Ver-	.
*Xped	*	*	*	*	*	*	*	*	*
=57	=57	=57	=57	=57	=57	=57	=57	=57	=57
!	!	!	!	!LO:TX:a:i:t=langsam.	!	!	!LO:TX:a:i:t=langsam.	!	!
2.r	2.r	.	.	4.G/	-giss-	.	4.dd-\	-giss-	.
.	.	.	.	4.d-X\	-mein-	.	4.g/	-mein-	.
=58	=58	=58	=58	=58	=58	=58	=58	=58	=58
2.r	2.r	.	.	4c\	-nicht!	.	4a-/	-nicht!	.
.	.	.	.	8r;	.	.	8r;	.	.
.	.	.	.	4r	.	.	4r	.	.
.	.	.	.	8d-\	Ver-	.	8ff\	Ver-	.
=59	=59	=59	=59	=59	=59	=59	=59	=59	=59
2.r	2.r	.	.	4.c\	-giss-	.	4.gg-X\	-giss-	.
.	.	.	.	4.e-\	-mein-	.	4.an/	-mein-	.
!!LO:LB:g=original	!	!	!	!	!	!	!	!
=60	=60	=60	=60	=60	=60	=60	=60	=60	=60
2.r	2.r	.	.	4.d-\	-nicht!	.	4.b-\	-nicht!	.
.	.	.	.	8r	.	.	8r	.	.
.	.	.	.	16r	.	.	16r	.	.
.	.	.	.	16f-X\	Ver-	.	16b-\	Ver-	.
.	.	.	.	16e-\	-giss-	.	16cc\	-giss-	.
.	.	.	.	16d-\	-mein-	.	16dd-\	-mein-	.
=61	=61	=61	=61	=61	=61	=61	=61	=61	=61
2.r	2.r	.	.	4.c\	-nicht,	.	4.ee-\	-nicht,	.
.	.	.	.	[4.fn\	Ver-	.	4.a-/	Ver-	.
=62	=62	=62	=62	=62	=62	=62	=62	=62	=62
2.r	2.r	.	.	(4f\]	.	>	(4.dd-\	-giss-	.
.	.	.	.	8f-X\)	.	.	.	.	.
.	.	.	.	4e-\	-giss-	.	4cc\)	.	.
.	.	.	.	8d-\	-mein-	.	8b-\	-mein-	.
=63	=63	=63	=63	=63	=63	=63	=63	=63	=63
*	*^	*	*	*	*	*	*	*	*
*ped	*	*	*	*	*	*	*	*	*	*
16AA-/	16r	4ryy	.	p	4.c\	-nicht!	]	4.a-/	-nicht!	.
!	!LO:TX:a:i:t=erstes Zeitmass.	!	!	!	!	!	!	!	!	!
!	!LO:TX:t=P:problem:łuk w formie "fali"	!	!	!	!	!	!	!	!	!
16r	N(>16ee-/LL	.	.	.	.	.	.	.	.	.
16r	16e-/JJ	.	.	.	.	.	.	.	.	.
16c\LL	16r	.	.	.	.	.	.	.	.	.
16A-\	8r	8c\ 8e-	.	.	.	.	.	.	.	.
*Xped	*	*	*	*	*	*	*	*	*	*
16E-\JJN)	.	.	.	.	.	.	.	.	.	.
*ped	*	*	*	*	*	*	*	*	*	*
16AA-/	16ryy	4d-\ 4f	.	.	4r	.	.	4r	.	.
!	!LO:TX:t=P:problem:łuk w formie "fali"	!	!	!	!	!	!	!	!	!
16r	N(16ee-/LL	.	.	.	.	.	.	.	.	.
16r	16e-/JJ	.	.	.	.	.	.	.	.	.
16e-\LL	16r	.	.	.	.	.	.	.	.	.
16d-\	8r	8B-\ 8g	.	.	8r	.	.	8r	.	.
16E-\JJN)	.	.	.	.	.	.	.	.	.	.
*Xped	*	*	*	*	*	*	*	*	*	*
=64	=64	=64	=64	=64	=64	=64	=64	=64	=64	=64
*ped	*	*	*	*	*	*	*	*	*	*
16AA-/	16r	4c\ 4a-	.	.	2.r	.	.	2.r	.	.
!	!LO:TX:t=P:problem:łuk w formie "fali"	!	!	!	!	!	!	!	!	!
16r	N(16ee-/LL	.	.	.	.	.	.	.	.	.
16r	16e-/JJ	.	.	.	.	.	.	.	.	.
16c\LL	16r	.	.	.	.	.	.	.	.	.
16A-\	8r	8c\ 8e-	.	.	.	.	.	.	.	.
*Xped	*	*	*	*	*	*	*	*	*	*
16E-\JJN)	.	.	.	.	.	.	.	.	.	.
*ped	*	*	*	*	*	*	*	*	*	*
16AA-/	16r	4d-\ 4f	.	.	.	.	.	.	.	.
!	!LO:TX:t=P:problem:łuk w formie "fali"	!	!	!	!	!	!	!	!	!
16r	N(16ee-/LL	.	.	.	.	.	.	.	.	.
16r	16e-/JJ	.	.	.	.	.	.	.	.	.
16e-\LL	16r	.	.	.	.	.	.	.	.	.
16d-\	8r	8B-\ 8g	.	.	.	.	.	.	.	.
16E-\JJN)	.	.	.	.	.	.	.	.	.	.
*Xped	*	*	*	*	*	*	*	*	*	*
=65	=65	=65	=65	=65	=65	=65	=65	=65	=65	=65
*ped	*	*	*	*	*	*	*	*	*	*
16AA-/	16r	4c\ 4a-	.	.	2.r	.	.	2.r	.	.
!	!LO:TX:t=P:problem:łuk w formie "fali"	!	!	!	!	!	!	!	!	!
16r	N(16aa-/LL	.	.	.	.	.	.	.	.	.
16r	16a-/JJ	.	.	.	.	.	.	.	.	.
16a-\LL	16r	.	.	.	.	.	.	.	.	.
16A-\	8r	8g-X\ 8ee-	.	.	.	.	.	.	.	.
*Xped	*	*	*	*	*	*	*	*	*	*
16A-\JJN)	.	.	.	.	.	.	.	.	.	.
*ped	*	*	*	*	*	*	*	*	*	*
16AA-/	16r	4f\ 4ddn	.	.	.	.	.	.	.	.
!	!LO:TX:t=P:problem:łuk w formie "fali"	!	!	!	!	!	!	!	!	!
16r	N(16aa-/LL	.	.	.	.	.	.	.	.	.
16r	16a-/JJ	.	.	.	.	.	.	.	.	.
16a-\LL	16r	.	.	.	.	.	.	.	.	.
16A-\	8r	8B-\ 8gn	.	.	.	.	.	.	.	.
16A-\JJN)	.	.	.	.	.	.	.	.	.	.
*Xped	*	*	*	*	*	*	*	*	*	*
=66	=66	=66	=66	=66	=66	=66	=66	=66	=66	=66
*ped	*	*	*	*	*	*	*	*	*	*
16AA-/	16r	4e-\ 4cc	.	.	2.r	.	.	2.r	.	.
!	!LO:TX:t=P:problem:łuk w formie "fali"	!	!	!	!	!	!	!	!	!
16r	N(16aa-/LL	.	.	.	.	.	.	.	.	.
16r	16a-/JJ	.	.	.	.	.	.	.	.	.
16a-\LL	16r	.	.	.	.	.	.	.	.	.
16A-\	8r	8d-\ 8fn	.	.	.	.	.	.	.	.
*Xped	*	*	*	*	*	*	*	*	*	*
16A-\JJN)	.	.	.	.	.	.	.	.	.	.
*ped	*	*	*	*	*	*	*	*	*	*
16AA-/	16r	4c\ 4a-	.	.	.	.	.	.	.	.
!	!LO:TX:t=P:problem:łuk w formie "fali"	!	!	!	!	!	!	!	!	!
16r	N(16aa-/LL	.	.	.	.	.	.	.	.	.
16r	16a-/JJ	.	.	.	.	.	.	.	.	.
16a-\LL	16r	.	.	.	.	.	.	.	.	.
16A-\	8r	8B-\ 8d-	.	.	.	.	.	.	.	.
16A-\JJN)	.	.	.	.	.	.	.	.	.	.
*Xped	*	*	*	*	*	*	*	*	*	*
*	*v	*v	*	*	*	*	*	*	*	*
=67	=67	=67	=67	=67	=67	=67	=67	=67	=67
*ped	*	*	*	*	*	*	*	*	*
4AA-/	4c/ 4a-	.	.	2.r	.	.	2.r	.	.
*Xped	*	*	*	*	*	*	*	*	*
8r	8r	.	.	.	.	.	.	.	.
(4.g-X>\ 4.a->	(>4.ee-/ 4.ccc	.	.	.	.	.	.	.	.
=68	=68	=68	=68	=68	=68	=68	=68	=68	=68
4.f>\ 4.a->	4.dd-/ 4.ddd-	.	.	2.r	.	.	2.r	.	.
4.e->\ 4.b->	4.dd-/ 4.ggn	.	.	.	.	.	.	.	.
=69	=69	=69	=69	=69	=69	=69	=69	=69	=69
4.A-\) 4.e-> 4.a->	4.cc/) 4.aa-	.	.	2.r	.	.	2.r	.	.
[4.AA-\ 4.E-	(>4.e-/ 4.cc	.	.	.	.	.	.	.	.
=70	=70	=70	=70	=70	=70	=70	=70	=70	=70
2AA-;\] 2A-	2c;/) 2a-	.	.	2r	.	.	2r	.	.
==	==	==	==	==	==	==	==	==	==
*-	*-	*-	*-	*-	*-	*-	*-	*-	*-
!!!system-decoration: s1,s2{(s3,s4)}
!!!RDF**kern: N = linked
!!!RDF**kern: > = above
!!!RDF**kern: < = below
!!!ENC: Berenika Jozajtis
!!!END: 2022-07-23
!!!ENC: Natalia Wrzos
!!!END: 2022-08-17
